X:40
T: Eileen Murray's #3 (polka)
C: S.O Driscoll
Z: B.Black
L: 1/8
M: 2/4
R: polka
K: G
D |: G2 GB | AG ED | G2 GA | Bd ed |
G2 GB | AG ED | GB AF | G2 G2 :|
e2 ed | ef ge | d2 dc | Bc dB |
e2 ed | ef ge | dB AB | G2 G2 :|
